X:1
T:Title
%%score [ 1 2 3 ( 4 5 ) ]
L:1/8
Q:1/4=120
M:3/4
K:C
V:1 treble nm="S."
V:2 treble nm="A."
V:3 treble-8 nm="T."
V:4 bass nm="B."
V:5 bass 
V:1
"^Christina Rossetti"!pp! (c4"^Larghetto" BA | (G3!<(! ^F) =F"^Summer is gone"C!<)! | %2
w: Sum- mer is|gone * with *|
!>(! (E3 ^D) =D2)!>)! | B,2 C3 (E |"^Samuel Coleridge-Taylor""^(1875-1912)"!>(! G4 (A!>)!B)) | %5
w: all * its|ro- ses, Its|sun, and *|
!>(! ((G3 A)!>)! AB |!<(! (c2 BA!<)! cB)) |"^cresc." _B4 (A2 |!f!!>(! (f4 ed)!>)! | %9
w: per * fumes and|sweet * * * *|flow'rs, Its|warm * *|
 (A3!<(! B)) ^cd!<)! | ((e3!>(! ^d) (=dc)) |!p! E4!>)! ((F^F) | %12
w: air, * and re-|\-fresh * ing *|show'rs; And *|
 (G2- G/A/)!<(!(B/A/) (G/A/)(B/)A/)!<)! | G2 (E3 E) | %14
w: e * * ven * Au * tumn *|clo- ses, and|
 ((G2- G/A/_B/!>(!A/)"^poco rit." (^G/A/)=B/A/!>)! |!pp! G4 e2 |!<(! c6- |!>(! c6!<)! | %18
w: Au * * tumn * clo * ses, and|Au- tumn|clo||
!pp! c6)!>)! | C4 z2 || (c4 BA | (G3!<(! ^F) (=FC)!<)! |!>(! (E3 ^D)) =D2 | B,2!>)! C3!<(! (E | %24
w: |ses.|Yea! Au- tumn's|chil * ly *|self * is|go- ing, And|
!>(! G4!<)! (A!>)!B)) |!>(! ((G3 A)!>)! AB |!<(! (c2 BA cB)!<)! | _B3) A (A2 |!f! f4 (ed) | %29
w: win- ter *|comes * which is|yet * * * *|cold- er, Each|day the *|
 ((A3 B)))!<(! (^cd)!<)! | ((e3 ^d) (=dc) | F2) E z!p! (F^F | %32
w: hoar * frost *|wax * es *|bold- er, And the|
!<(! (G2- G/A/B/A/)!<)!!>(! (G/A/)(B/A/))!>)! | G2 (E3 E) | %34
w: last * * * * buds * cease *|blow- ing, the|
!<(! ((G2- G/A/_B/A/)!<)!"^poco rall."!>(! (^G/A/)(=B/A/))!>)! |!pp! G4 e2 |!<(! (c6- | %37
w: last * * * * buds * cease *|blow- ing,|blow|
!>(! c6!<)! | c6!>)! | C4) z2 |!ff!"^a tempo" (c4 BA |!>(! G3 ^F!>)!!<(! =FE!<)! | (A4- AG)) | %43
w: ||ing.|Sum- mer is|gone with all its|ro * *|
!>(! G6 |!pp!"^meno mosso" (c4!>)!!<(! BA)!<)! | [ce]4- [ce] z | %46
w: ses,|Sum- mer is|gone, *|
 z2!pp!"^poco                    a                   poco                                 morendo" (E E2!<(! E | %47
w: Sum- mer is|
 E3!<)!!>(! E EE!>)! |!ppp! (E4- E>^c) | ^c6-) | c z z2 z2 | z6 |] %52
w: gone with all its|ro * *|ses.|||
V:2
!pp! (A2 G2) FE | (D2!<(! ^C2) =C2!<)! |!>(! (C2 B,2) ^G,2!>)! | B,2 A,3 C | (E2 D2) ^D2 | %5
w: Sum * mer is|gone * with|all * its|ro- ses, Its|sun, * and|
w: |||||
 (E2 !courtesy!=D2) ^DD |!<(! (^D4 E!<)!=D) |"^cresc." D4 ^C2 |!f! (A3!>(! ^G) =GF!>)! | %9
w: per * fumes and|sweet * *|flow'rs, Its|warm * air, and|
w: ||||
 A4!<(! GF!<)! |!>(! A4 ^G2!>)! |!p! (D2 C2) (D^D) | (E2 _E2)!<(! D2 | G,4!<)! G,2 | %14
w: show'rs, its re-|\-fresh- ing|show'rs; * And *|e * ven|Au- tumn|
w: |||||
 E4!>(! FF!>)! |!pp! (E2 D2) F2 | G2!<(! ^F2 =F2!<)! | (E2!>(! _E2) D2!>)! |!pp! E6 | C4 z2 || %20
w: clo- ses, and|Au * tumn|clo- ses, and|Au * tumn|clo-|ses.|
w: ||||||
 (A2 G2) FE | (D2!<(! ^C2) =C2!<)! |!>(! (C2 B,2) ^G,2 | B,2!>)! A,3!<(! C | %24
w: Yea! * Au- tumn's|chil * ly|self * is|go- ing, And|
w: ||||
!>(! (E2!<)! D2)!>)! ^D2 |!>(! (E2 !courtesy!=D2)!>)! ^DD |!<(! (^D4 E=D)!<)! | D2 ^C3 C | %28
w: win * ter|comes * which is|yet * *|cold- er, Each|
w: ||||
!f! (A3 ^G) (=GF) | A4!<(! (GF)!<)! | A4 ^G2 | C2 C z!p! D^D |!<(! E2!>(! _E2!<)! D2!>)! | %33
w: day * the *|hoar- frost *|wax- es|bold- er, And the|last buds cease|
w: |||||
 G,2 G,3 G, |!<(! E4!>(! F!<)!F!>)! |!pp! E2 D2 F2 | (G2 ^F2!<(! =F2) | (E2!<)!!>(! _E2) D2!>)! | %38
w: |last buds cease|blow- ing, the|last * *|buds * cease|
w: blow- ing, the|||||
 E6 | C4 z2 |!ff! [FA]4 FF |!>(! C4!<(! B,2!>)! | (E2!<)! _E2) D2 |!>(! D2 C4!>)! | %44
w: blow-|ing.|Sum- mer is|gone with|all * its|ro- ses,|
w: ||||||
!pp! [FA]4!<(! [FA][FA]!<)! | [^FA]4- [FA] z | z6 |!pp! C2- C z z2 |!ppp!!<(! ^C6- |!>(! C6!<)! | %50
w: Sum- mer is|gone! *||gone! *|gone!||
w: ||||||
!ppp! ^C6!>)! | ^C2 z2 z2 |] %52
w: ||
w: ||
V:3
!pp! (e3 ^d) =dc | (B2 _B2)!<(! A2 |!>(! ^G4!<)! B2!>)! | ^G2 A3 A |!>(! B4 B2!>)! | %5
w: Sum * mer is|gone * with|all its|ros- es, Its|sun, and|
!>(! B4 B!>)!B |!<(! (A4 ^G2)!<)! | (!courtesy!=G2"^cresc." g2) (fe) |!f!!>(! (d4 ef)!>)! | %9
w: per- fumes and|sweet *|flow'rs, * Its *|warm * *|
 (e2!<(! d2) AA!<)! | (f2!>(! B2) d2!>)! |!p! (B2 A2) c2 | c4!<(! B2 | (c2!<)! _B2) A2 | %14
w: air, * its re-|\-fresh * ing|show'rs; * And|e- ven|Au * tumn|
 _B4!>(! =Bc!>)! |!pp! B4 B2 | e2!<(! _e2 d2!<)! | (c2!>(! A2) _A2!>)! |!pp! G6 | E4 z2 || %20
w: clo- ses, and|Au- tumn|clo- ses, and|Au * tumn|clo-|ses.|
 (e3 ^d) =dc | (B2!<(! _B2) A2!<)! |!>(! ^G4 B2!>)! | ^G2 A3!<(! A |!>(! B4!<)! B2!>)! | %25
w: Yea! * Au- tumn's|chil * ly|self is|go- ing, And|win- ter|
!>(! B4 B!>)!B |!<(! (A4 ^G2)!<)! | !courtesy!=G2 g2 (fe) |!f! d4 (ef) | (e2!<(! d2) A2!<)! | %30
w: comes which is|yet *|cold- er, Each *|day the *|hoar * frost|
 (f2 B2) d2 | c2 A z!p! cc |!<(! c2!>(! A2!<)! B2!>)! | c2 _B2 A2 |!<(! _B4!>(! =B!<)!c!>)! | %35
w: wax * es|bold- er, And the|last buds cease|blow- ing, the|last buds cease|
!pp! B3 B B2 | (e2 _e2!<(! d2) | (c2!<)!!>(! A2) _A2!>)! | G6 | E4 z2 |!ff! [Ac]4 [Ac][Ac] | %41
w: blow- ing, the|last * *|buds * cease|blow-|ing.|Sum- mer is|
!>(! A4!<(! G2!>)! | (c2!<)! A2) B2 |!>(! G2 G4!>)! |!pp! [Ac]4!<(! [Ac][Ac]!<)! | [Ac]4- [Ac] z | %46
w: gone with|all * its|ro- ses,|Sum- mer is|gone! *|
 z6 |!pp! ^G2- G z z2 |!ppp!!<(! [Ae]6- |!>(! [Ae]6!<)! |!ppp! [Ae]6!>)! | [Ae]2 z2 z2 |] %52
w: |gone! *|gone!||||
V:4
!pp! x6 | x6 |!>(! x6!>)! | F,2 E,3 E, |!>(! x6!>)! | %5
w: |||||
!>(! [!courtesy!=G,,!courtesy!=F,]4 [^F,,^F,]!>)![F,,F,] | %6
w: per- fumes and|
!<(! ([!courtesy!=F,,!courtesy!=F,]4 [E,,E,]2)!<)! |"^cresc." [A,,E,]4 A,,2 | %8
w: sweet *|flow'rs, Its|
!f! (A,3!>(! B,) ^CD!>)! | F,4!<(! E,D,!<)! | %10
w: warm * air and|show'rs, its re-|
"^This edition""^?""^Andrew Sims 2004" (B,,2!>(! F,2) E,2!>)! |!p! ([A,,E,]4{A,)} [_A,,_A,]2 | %12
w: \-fresh * ing|show'rs; And|
 ([G,,G,]2 ^F,2)!<(! =F,2 | (E,2!<)! D,2) ^C,2 | !courtesy!=C,4!>(! [F,,C,]D,!>)! | %15
w: e * ven|Au * tumn|clo- ses, and|
!pp!!<(! (G,2- G,/A,/)!<)!(B,/!>(!A,/) G,[G,,G,]!>)! | [_B,,_B,]2!<(! [A,,A,]2 [_A,,_A,]2!<)! | %17
w: e * * ven * Au- tumn|clo- ses, and|
 ([G,,G,]2!>(! [^F,,^F,]2) [=F,,=F,]2!>)! |!pp! C,6 | C,4 z2 || x6 |!<(! x6!<)! |!>(! x6!>)! | %23
w: Au * tumn|clo-|ses.||||
 F,2 E,3 E, |!>(! x6!>)! |!>(! [!courtesy!=G,,!courtesy!=F,]4 [^F,,^F,]!>)![F,,F,] | %26
w: ||comes which is|
!<(! (([!courtesy!=F,,!courtesy!=F,]4 [E,,E,]2))!<)! | [A,,E,]2 [A,,E,]2 A,,2 |!f! (A,3 B,) (^CD) | %29
w: yet *|cold- er, Each|day * the *|
 F,4!<(! (E,D,)!<)! | (B,,2 F,2) E,2 | [A,,F,]2 [A,,E,] z!p! [_A,,_A,][A,,A,] | %32
w: hoar- frost *|wax * es|bold- er, And the|
!<(! [G,,G,]2!>(! ^F,2!<)! =F,2!>)! | E,2 D,2 ^C,2 |!<(! !courtesy!=C,4!>(! [F,,C,]!<)!D,!>)! | %35
w: last buds cease|blow- ing, the|last buds cease|
!pp! (G,2- G,/A,/B,/A,/) G,[G,,G,] | ([_B,,_B,]2!<(! [A,,A,]2 [_A,,_A,]2)!<)! | %37
w: blow * * * * ing, the|last * *|
 ([G,,G,]2!>(! [^F,,^F,]2) [=F,,=F,]2!>)! | [C,C]6 | C,4 z2 |!ff! x6 |!>(! D,4!<(! G,2!>)! | %42
w: buds * cease|blow-|ing.|||
 (^F,4!<)! =F,2 |!>(! E,4) D,E,!>)! |!pp! x6 | x6 | z6 |!pp! [E,,D,]2- [E,,D,] z z2 | %48
w: |||||gone! *|
!ppp!!<(! [A,,E,]6- |!>(! [A,,E,]6!<)! |!ppp! [A,,E,]6!>)! | [A,,E,]2 z2 z2 |] %52
w: gone!||||
V:5
 [A,,E,]4 [A,,E,][A,,E,] | D,4!<(! D,2 | E,4!<)! [E,,E,]2 | A,,2 A,,2 ^G,,2 | %4
w: Sum- mer is|gone with|all its|ro- ses, Its|
 [!courtesy!=G,,!courtesy!=F,]4 [^F,,^F,]2 | x6 | x6 | x6 | x6 | x6 | x6 | x6 | x6 | x6 | x6 | x6 | %16
w: sun, and||||||||||||
 x6 | x6 | x6 | x6 || [A,,E,]4 [A,,E,][A,,E,] | D,4 D,2 | E,4 [E,,E,]2 | A,,2 A,,2!<(! ^G,,2 | %24
w: ||||Yea! Au- tumn's|chil- ly|self is|go- ing, And|
 [!courtesy!=G,,!courtesy!=F,]4!<)! [^F,,^F,]2 | x6 | x6 | x6 | x6 | x6 | x6 | x6 | x6 | x6 | x6 | %35
w: win- ter|||||||||||
 x6 | x6 | x6 | x6 | x6 | [F,,C,]4 [F,,C,][F,,C,] | D,4 G,,G,, | C,6 | C,4 (D,E,) | %44
w: |||||Sum- mer is|gone with its|ro|* ses, *|
 F,4!<(! F,F,!<)! | [D,^F,]4- [D,F,] z | x6 | x6 | x6 | x6 | x6 | x6 |] %52
w: Sum- mer is|gone! *|||||||

